X:725
T:First of October, The
C:Nigel Gatherer
Z:Nigel Gatherer
M:4/4
L:1/4
K:D
D A A2 | B A A2 | D E F G | F E E2  |
D A A2 | B A A2 | D E F G | F E D2 :|
d A A2 | B A A2 | D E F G | F E E2  |
d A A2 | B A A2 | D E F G | F E D2 :|
